X: 3376
T: The SPIDER AND THE FLY
%R: march, reel
B: James Kerr "Merry Melodies" v.3 p.41 #376
Z: 2016 John Chambers <jc:trillian.mit.edu>
M: 2/4
L: 1/16
K: A
(cd) !segno!|\
e2e2e2e2 | e2e2e2e2 | f2a2g2f2 | e6 e2 |\
e2d2d2d2 | d2c2c2e2 | f2d2B2G2 | AEFG ABcd |\
eeee e2e2 | eeee e2e2 | ffaa ggff | eeee e2e2 |
eddd d2d2 | dccc c2e2 | f2d2B2G2 | A6 |:\
E2 |\
A2c2c2e2 | A2c2c2e2 | e2d2d2d2 | d4 c4 |\
AAcc c2e2 | AAcc c2e2 | f2d2B2G2 |[1 A6 :|\
[2 AEFG ABcd !segno!|]

%%sep 1 1 500
%%sep 1 1 500

